X:1
T:Title
%%score ( 1 2 ) { ( 3 5 6 ) | 4 }
L:1/8
Q:1/4=100
M:4/4
K:G
V:1 treble nm="Bright Piano,  "
V:2 treble 
V:3 bass nm="Bright Piano,  "
V:5 bass 
V:6 bass 
V:4 bass 
V:1
 [B,E]2 E[^DF] [EG][FA] [GB]2 | [EG]2 [^DF]2 [B,E]4 | [EG]2 [^DF]2 E2 [B,D]2 | %3
w: Joseph~Parry,~1876 * * * * *|||
 B,-[B,F] [EG]2 [^DF]4 | [B,E]2 [B,E][^DF] [EG][FA] [GB]2 | [EG]2 [^DF]2 [B,E]4 | %6
w: |||
 [^DF]2 [EG][FA] [GB]2 [FA]2 | [EG]2 [^DF]2 [B,E]4 | [CE]2 [B,D]2 [CE]2 [CF]2 | [DG]2 BA [DG]4 | %10
w: ||||
 z4 z2 .F2 | [DB]2 [Fd][E^c] [DB]4 | [Ee]2 e-[Fe] [Gd]2 [DB]2 | [EG]2 [EA]2 [FB]4 | %14
w: ||||
 E2 E[^DF] [EG][FA] [GB]2 | [EG]2 [^DF]2 [B,E]4 |] %16
w: ||
V:2
 x8 | x8 | x8 | .E2 z2 z4 | x8 | x8 | x8 | x8 | x8 | z2 F2 z4 | [EG]2 [^DF]2 [EG]2 A-[=DA] | x8 | %12
 z2 .G2 z4 | x8 | x8 | x8 |] %16
V:3
 G,2 B,2 B,2 B,2 | B,2 B,A, G,4 | B,2 B,2 B,2 B,2 | B,2 B,2 B,4 | G,A, B,2 B,2 B,2 | B,2 F,A, G,4 | %6
w: Je sus,~ lov er~|of~ my~ * soul,~|let~ me~ to~ thy~|bo som~ fly,~|while~ * the~ near er~|wa ters~ * roll,~|
 B,2 B,[K:treble]D D2 C2 | B,2 B,[K:bass]A, G,4 | G,2 G,2 G,2 A,2 | B,2 DC B,4 | B,2 B,2 B,2 DF, | %11
w: while~ the~ * tem pest~|still~ is~ * high;~|hide~ me,~ O~ my~|Sav ior,~ * hide,~|till~ the~ storm~ of~ *|
 z2 z _B, =B,4 | G,2[K:treble] C2 D2 G,2 | B,2 E2 ^D4 | B,CB,A, B,2 B,2 | B,2 F,/G,/A, G,4 |] %16
w: * past;~|safe~ in to~ the~|ha ven~ guide,~|O~ * re * ceive~ my~|soul~ at~ * * last!~|
V:4
 E,2 G,,B,, E,2 G,,A,, | B,,2 B,,2 E,4 | E,2 F,2 G,2 A,2 | G,F, E,2 B,,4 | E,F,G,F, E,2 G,,A,, | %5
 B,,2 B,,2 E,4 | B,,2 E,D, G,2 A,2 | z2 B,,2 E,4 | C,2 G,,2 C,B,, A,,2 | G,,2 D,2 G,,4 | %10
 E,2 B,,2 E,2 D,2 | z4 B,,4 | C,2 z2 B,2 z2 | E,2 C,2 B,,4 | G,A,G,F, E,2 G,,A,, | B,,2 B,,2 E,4 |] %16
V:5
 x8 | x8 | x8 | x8 | x8 | x8 | x3[K:treble] x5 | x3[K:bass] x5 | x8 | x8 | x8 | z .B,3 z4 | %12
 x2[K:treble] x6 | x8 | x8 | x8 |] %16
V:6
 x8 | x8 | x8 | x8 | x8 | x8 | x3[K:treble] x5 | x3[K:bass] x5 | x8 | x8 | x8 | G,2 F,2 z4 | %12
 x2[K:treble] x6 | x8 | x8 | x8 |] %16

